src/assets/img/providers-white/boldplay.svg

<svg width="112" height="28" viewBox="0 0 112 28" fill="none" xmlns="http://www.w3.org/2000/svg">
<path fill-rule="evenodd" clip-rule="evenodd" d="M55.7847 9.78397V3.37518C55.7847 3.05642 55.5175 2.79795 55.188 2.79688H54.343C54.2138 2.79688 54.0891 2.83672 53.9856 2.91211C53.7247 3.10121 53.3797 3.35175 53.0144 3.61698C52.4332 4.03901 51.8007 4.49825 51.3748 4.80642C51.2234 4.91518 51.1354 5.08642 51.1354 5.26842V6.7169C52.3 7.08197 53.3465 7.6689 54.2049 8.45504L55.7847 9.78397ZM75.388 2.91341L72.7774 4.80772C72.6274 4.91648 72.5394 5.08772 72.5394 5.26972V19.9923C72.5394 20.3111 72.806 20.5696 73.136 20.5696H76.5914C76.9214 20.5696 77.1887 20.3111 77.1887 19.9923V3.37541C77.1887 3.05664 76.9214 2.79818 76.5914 2.79818H75.7467C75.6174 2.79818 75.4914 2.83802 75.388 2.91341ZM93.1713 8.07687V19.979C93.1713 20.2978 92.904 20.5563 92.5747 20.5563H89.9747C89.734 20.5563 89.516 20.4163 89.4233 20.2009L89.1787 19.6323C88.0733 20.4981 86.674 20.9978 85.106 20.9978C80.9787 20.9978 78.0287 18.0847 78.0287 14.0269C78.0287 9.983 80.9787 7.10547 85.106 7.10547C86.696 7.10547 88.1167 7.6192 89.2313 8.50874L89.5473 7.83674C89.644 7.631 89.8567 7.4986 90.0907 7.4986H92.5747C92.904 7.49967 93.1713 7.75814 93.1713 8.07687ZM88.7487 14.0377C88.7487 12.3426 87.4687 11.0697 85.7273 11.0697C83.9747 11.0697 82.706 12.3426 82.706 14.0377C82.706 15.7424 83.986 17.0153 85.7273 17.0153C87.4687 17.0153 88.7487 15.7424 88.7487 14.0377ZM108.285 7.51302C108.715 7.51302 109.004 7.94055 108.831 8.32289L103.541 19.9892C101.721 23.9856 100.048 25.4287 96.5634 25.4287H95.5681C95.2387 25.4287 94.9714 25.1702 94.9714 24.8515V22.142C94.9714 21.8232 95.2387 21.5647 95.5681 21.5647H96.2494C98.0287 21.5647 98.5654 21.1167 99.1941 19.4916L93.9961 8.32822C93.8181 7.94595 94.1074 7.51409 94.5407 7.51409H98.2594C98.5061 7.51409 98.7281 7.66162 98.8161 7.88349L101.535 14.7058L104.062 7.89535C104.147 7.66595 104.371 7.51302 104.624 7.51302H108.285ZM61.2431 21.3644V24.8515C61.2431 25.1702 60.9758 25.4287 60.6463 25.4287H59.8013C59.6721 25.4287 59.5474 25.3889 59.4439 25.3135C58.797 24.8454 57.6879 24.0404 56.9439 23.5004L56.9383 23.4963L56.9358 23.4944L56.832 23.4191C56.6817 23.3104 56.5937 23.1391 56.5937 22.9571V18.2995L58.1736 19.6262C59.0319 20.4124 60.0774 21.0004 61.2431 21.3644ZM64.1617 7.08529C60.9586 7.08529 58.4091 8.62529 57.259 11.0247L61.2682 14.3944C61.2559 14.2791 61.2503 14.1618 61.2503 14.0411C61.2503 12.3159 62.4661 11.1248 64.1617 11.1248C65.0602 11.1248 65.8239 11.4619 66.3438 12.0348C66.3928 12.0887 66.4396 12.1447 66.4841 12.2028C66.493 12.2147 66.503 12.2265 66.512 12.2394C66.5249 12.2573 66.5379 12.2761 66.551 12.295L66.552 12.2965C66.5581 12.3056 66.5645 12.3147 66.5708 12.3237L66.5709 12.3238L66.5709 12.3239L66.5709 12.3239L66.5712 12.3243C66.5775 12.3333 66.5838 12.3424 66.5899 12.3514C66.601 12.3676 66.611 12.3848 66.621 12.401C66.6355 12.4236 66.6489 12.4451 66.6622 12.4678C66.6677 12.4763 66.6728 12.4853 66.6779 12.4945L66.678 12.4947L66.6878 12.5119L66.6972 12.5286L66.6973 12.5286C66.7085 12.5486 66.7197 12.5683 66.7302 12.5894L66.7402 12.6094L66.7502 12.6293C66.7613 12.6508 66.7718 12.673 66.7821 12.6949L66.7914 12.7144L66.7997 12.7326L66.8081 12.751C66.8184 12.7752 66.8288 12.7987 66.8391 12.8226L66.8482 12.8436L66.8552 12.8612L66.8615 12.877C66.8749 12.9104 66.8871 12.9438 66.8983 12.9782L66.9033 12.9933L66.9083 13.0084C66.9205 13.045 66.9317 13.0805 66.9428 13.1182L66.9445 13.1243L66.9467 13.1311L66.9486 13.1373L66.9506 13.144C66.9617 13.1839 66.9718 13.2238 66.9818 13.2636C66.9823 13.2668 66.9832 13.27 66.984 13.2733L66.9848 13.2766L66.9862 13.283C66.9962 13.326 67.0054 13.3702 67.014 13.4154C67.015 13.4177 67.0152 13.42 67.0156 13.4227L67.016 13.4262C67.0527 13.6222 67.0707 13.8279 67.0707 14.0411C67.0707 15.7664 65.8551 16.9574 64.1606 16.9574C63.261 16.9574 62.6587 16.588 61.9751 16.0496L53.6462 9.04849C52.3025 7.81329 50.4098 7.08529 48.2143 7.08529C43.8133 7.08529 40.6459 9.99509 40.6459 14.0422C40.6459 15.8008 41.2481 17.3473 42.2913 18.533C42.2927 18.5343 42.294 18.5358 42.2953 18.5373L42.2974 18.5399L42.2998 18.5428C42.301 18.5443 42.3023 18.5457 42.3036 18.547C42.3214 18.5674 42.3403 18.5879 42.3593 18.6084C42.3793 18.6299 42.3993 18.6525 42.4194 18.674L42.4219 18.6766L42.4239 18.6789L42.4267 18.6821L42.4283 18.6838C43.781 20.129 45.8139 20.9991 48.2143 20.9991C51.404 20.9991 53.958 19.4527 55.1125 17.0576L51.1078 13.6944C51.1189 13.8074 51.1257 13.9238 51.1257 14.0433C51.1257 15.7685 49.9099 16.9596 48.2154 16.9596C47.3147 16.9596 46.5499 16.6236 46.031 16.0507C45.9765 15.9904 45.9253 15.9279 45.8763 15.8633L45.8736 15.8599L45.8732 15.8595C45.872 15.8581 45.8709 15.8567 45.8698 15.8553C45.8689 15.8541 45.8681 15.8528 45.8674 15.8514C45.8485 15.8267 45.8306 15.8008 45.8139 15.775C45.8061 15.7631 45.7983 15.7524 45.7905 15.7405C45.7808 15.7263 45.7719 15.7118 45.7631 15.6973L45.7546 15.6834L45.7471 15.6716C45.7382 15.6565 45.7282 15.6414 45.7193 15.6264C45.7059 15.6048 45.6937 15.5822 45.6815 15.5596C45.6764 15.551 45.6717 15.5423 45.667 15.5337C45.6622 15.5251 45.6575 15.5165 45.6525 15.5079L45.6417 15.4872L45.6334 15.4713C45.6282 15.4613 45.623 15.4512 45.618 15.4411L45.5913 15.3862C45.5801 15.3636 45.5701 15.341 45.5601 15.3173L45.5475 15.2885L45.5356 15.2613C45.5294 15.2465 45.5235 15.2317 45.5176 15.2166L45.5067 15.1891C45.5047 15.1836 45.5026 15.1781 45.5005 15.1725C45.4989 15.1684 45.4974 15.1644 45.4958 15.1603L45.4954 15.1593L45.4855 15.1331C45.4766 15.1084 45.4677 15.0825 45.4599 15.0567L45.4432 15.0018L45.4361 14.9777C45.4303 14.9584 45.4245 14.9389 45.4198 14.9199L45.4065 14.8682C45.4001 14.8445 45.3945 14.8201 45.389 14.7961L45.3853 14.7799L45.385 14.7785L45.3782 14.7475L45.3753 14.7336C45.3686 14.7013 45.3619 14.669 45.3563 14.6356C45.3552 14.6296 45.3544 14.6234 45.3536 14.6172C45.3527 14.611 45.3519 14.6049 45.3508 14.599L45.3451 14.5632L45.3451 14.5631C45.3411 14.5384 45.3371 14.5138 45.3341 14.4891C45.333 14.4827 45.333 14.4751 45.3319 14.4687C45.3151 14.3308 45.3063 14.1887 45.3063 14.0433C45.3063 12.317 46.522 11.127 48.2165 11.127C49.1149 11.127 49.7885 11.5384 50.3987 12.037L58.7297 19.0348C59.9533 20.1602 61.6344 20.8656 63.5884 20.9808V20.9819C63.6036 20.9829 63.6194 20.9835 63.6352 20.984L63.6353 20.984L63.6354 20.984L63.6355 20.984H63.6355C63.6519 20.9846 63.6683 20.9851 63.6841 20.9862L63.7157 20.9878L63.7427 20.9889C63.7617 20.9897 63.7808 20.9905 63.7998 20.9916C63.8198 20.9921 63.8401 20.9928 63.8605 20.9936L63.888 20.9946L63.929 20.9959C63.9724 20.997 64.0147 20.997 64.0581 20.998C64.0754 20.998 64.0927 20.9983 64.1099 20.9986C64.1272 20.9988 64.1444 20.9991 64.1617 20.9991C68.548 20.9991 71.73 18.0764 71.73 14.0422C71.73 9.99402 68.548 7.08529 64.1617 7.08529ZM37.9323 2.91341L35.3216 4.80772C35.1713 4.91648 35.0833 5.08772 35.0833 5.26972V19.9923C35.0833 20.3111 35.3505 20.5696 35.6801 20.5696H39.1359C39.4654 20.5696 39.7326 20.3111 39.7326 19.9923V3.37541C39.7326 3.05664 39.4654 2.79818 39.1359 2.79818H38.2909C38.1617 2.79818 38.0359 2.83802 37.9323 2.91341ZM19.0612 14.0411C19.0612 9.99402 22.2286 7.08529 26.6297 7.08529C31.0162 7.08529 34.1981 9.99402 34.1981 14.0411C34.1981 18.0742 31.0173 20.998 26.6297 20.998C22.2286 20.998 19.0612 18.0753 19.0612 14.0411ZM26.6297 16.9585C28.3253 16.9585 29.541 15.7685 29.541 14.0422C29.541 12.3267 28.3253 11.1259 26.6297 11.1259C24.934 11.1259 23.7183 12.3159 23.7183 14.0422C23.7183 15.7685 24.934 16.9585 26.6297 16.9585ZM18.1595 14.052C18.1595 9.99417 15.2236 7.1059 11.0675 7.1059C9.81947 7.1059 8.6794 7.42897 7.713 8.0051V3.37541C7.713 3.05664 7.4458 2.79818 7.11627 2.79818H6.3247C6.19555 2.79818 6.06975 2.83802 5.96621 2.91341L3.35544 4.80772C3.20514 4.91648 3.11719 5.08772 3.11719 5.26972V19.9934C3.11719 20.3122 3.38439 20.5706 3.71393 20.5706H6.16772C6.40486 20.5706 6.61974 20.435 6.71437 20.225L6.99604 19.6014C8.09267 20.4877 9.49214 20.9982 11.0675 20.9982C15.2236 20.9982 18.1595 18.1098 18.1595 14.052ZM10.4463 11.0743C12.1875 11.0743 13.4679 12.3472 13.4679 14.052C13.4679 15.7428 12.1764 17.0157 10.4463 17.0157C8.705 17.0157 7.42467 15.7428 7.42467 14.052C7.42467 12.3472 8.705 11.0743 10.4463 11.0743Z" fill="white"/>
</svg>

<svg width="112" height="28" fill="none" xmlns="http://www.w3.org/2000/svg"><path fill-rule="evenodd" clip-rule="evenodd" d="M55.785 9.784V3.375a.589.589 0 0 0-.597-.578h-.845c-.13 0-.254.04-.357.115l-.972.705-1.64 1.19a.568.568 0 0 0-.239.461v1.449c1.165.365 2.212.952 3.07 1.738l1.58 1.329Zm19.603-6.87-2.61 1.894a.57.57 0 0 0-.239.462v14.722c0 .32.267.578.597.578h3.455c.33 0 .598-.259.598-.578V3.375a.587.587 0 0 0-.598-.577h-.844c-.13 0-.256.04-.359.115Zm17.783 5.163v11.902a.587.587 0 0 1-.596.577h-2.6a.598.598 0 0 1-.552-.355l-.244-.569c-1.106.866-2.505 1.366-4.073 1.366-4.127 0-7.077-2.913-7.077-6.971 0-4.044 2.95-6.922 7.077-6.922 1.59 0 3.01.514 4.125 1.404l.316-.672a.599.599 0 0 1 .544-.338h2.484c.329 0 .596.26.596.578Zm-4.422 5.96c0-1.694-1.28-2.967-3.022-2.967-1.752 0-3.021 1.273-3.021 2.968 0 1.704 1.28 2.977 3.021 2.977 1.742 0 3.022-1.273 3.022-2.977Zm19.536-6.524c.43 0 .719.428.546.81l-5.29 11.666c-1.82 3.997-3.493 5.44-6.978 5.44h-.995a.587.587 0 0 1-.597-.577v-2.71c0-.319.268-.577.597-.577h.681c1.78 0 2.316-.448 2.945-2.073L93.996 8.328c-.178-.382.111-.814.545-.814h3.718c.247 0 .47.148.557.37l2.719 6.822 2.527-6.81a.595.595 0 0 1 .562-.383h3.661ZM61.243 21.364v3.488a.587.587 0 0 1-.597.577h-.845a.605.605 0 0 1-.357-.115l-2.5-1.814-.006-.004-.002-.002-.104-.075a.57.57 0 0 1-.238-.462V18.3l1.58 1.327a8.09 8.09 0 0 0 3.07 1.738Zm2.919-14.279c-3.203 0-5.753 1.54-6.903 3.94l4.01 3.37a3.324 3.324 0 0 1-.019-.354c0-1.725 1.216-2.916 2.912-2.916.898 0 1.662.337 2.182.91a2.6 2.6 0 0 1 .14.168l.028.036.039.056.001.002.019.027.019.027.031.05a1.912 1.912 0 0 1 .057.094l.01.017.01.017.032.06.01.02.01.02.032.066.01.02.008.018.008.018.031.072.01.02.006.018.007.016c.013.033.025.067.036.101l.005.015.005.015c.013.037.024.073.035.11l.002.006.002.007.002.006.002.007.03.12.003.01v.003l.002.006c.01.043.02.087.028.132l.002.008v.003c.037.196.055.402.055.615 0 1.725-1.216 2.916-2.91 2.916-.9 0-1.502-.369-2.186-.907l-8.329-7.002c-1.343-1.235-3.236-1.963-5.432-1.963-4.4 0-7.568 2.91-7.568 6.957 0 1.759.602 3.305 1.645 4.491l.004.004.002.003.003.003a2.788 2.788 0 0 0 .06.066c.02.02.04.043.06.065l.002.003.002.002.003.003.001.002c1.353 1.445 3.386 2.315 5.786 2.315 3.19 0 5.744-1.546 6.898-3.941l-4.004-3.364c.01.113.018.23.018.35 0 1.724-1.216 2.916-2.91 2.916-.901 0-1.666-.336-2.185-.91a2.822 2.822 0 0 1-.155-.187l-.002-.003-.004-.005a1.192 1.192 0 0 1-.056-.08l-.023-.034a.948.948 0 0 1-.028-.044l-.008-.014-.008-.011-.028-.046a1.278 1.278 0 0 1-.038-.066l-.014-.026-.014-.026-.011-.02-.009-.017-.015-.03-.027-.055a1.233 1.233 0 0 1-.03-.069l-.014-.028-.011-.028a1.983 1.983 0 0 1-.018-.044l-.011-.028-.006-.017-.005-.012-.01-.027a1.554 1.554 0 0 1-.026-.076l-.017-.055-.007-.024a1.23 1.23 0 0 1-.016-.058l-.014-.052a1.941 1.941 0 0 1-.017-.072l-.004-.016v-.002l-.007-.03-.003-.014a2.577 2.577 0 0 1-.021-.117l-.003-.018-.006-.036c-.004-.025-.008-.05-.01-.074-.002-.006-.002-.014-.003-.02a3.518 3.518 0 0 1-.026-.426c0-1.726 1.216-2.916 2.91-2.916.899 0 1.572.411 2.183.91l8.33 6.998c1.224 1.125 2.905 1.83 4.86 1.946.015.002.03.002.046.003l.05.002.03.002h.028l.057.004c.02 0 .04 0 .06.002h.028l.041.002.13.002h.05l.053.001c4.386 0 7.568-2.923 7.568-6.957 0-4.048-3.182-6.957-7.568-6.957Zm-26.23-4.172-2.61 1.895a.57.57 0 0 0-.239.462v14.722c0 .32.267.578.597.578h3.456c.33 0 .597-.259.597-.578V3.375a.587.587 0 0 0-.597-.577h-.845c-.13 0-.255.04-.359.115Zm-18.87 11.128c0-4.047 3.167-6.956 7.568-6.956 4.386 0 7.568 2.909 7.568 6.956 0 4.033-3.18 6.957-7.568 6.957-4.401 0-7.569-2.923-7.569-6.957Zm7.568 2.918c1.695 0 2.911-1.19 2.911-2.917 0-1.715-1.216-2.916-2.911-2.916-1.696 0-2.912 1.19-2.912 2.916s1.216 2.917 2.912 2.917Zm-8.47-2.907c0-4.058-2.936-6.946-7.092-6.946-1.249 0-2.389.323-3.355.9v-4.63a.587.587 0 0 0-.597-.578h-.791c-.13 0-.255.04-.359.115l-2.61 1.895a.57.57 0 0 0-.239.462v14.723c0 .32.267.578.597.578h2.454a.597.597 0 0 0 .546-.346l.282-.624c1.097.887 2.496 1.397 4.072 1.397 4.156 0 7.092-2.888 7.092-6.946Zm-7.714-2.978c1.742 0 3.022 1.273 3.022 2.978 0 1.69-1.292 2.964-3.022 2.964-1.741 0-3.021-1.273-3.021-2.964 0-1.705 1.28-2.978 3.021-2.978Z" fill="#fff"/></svg>
